/* XPM */
static char * spider_xpm[] = {
"64 64 5 1",
" 	c None",
".	c #2C342A",
"+	c #4F6D8D",
"@	c #435A6B",
"#	c #9ECEFF",
"                                                                ",
"                                                                ",
"                                                                ",
"                                                                ",
"                                                                ",
"                                                                ",
"                                                                ",
"                                                                ",
"                                                                ",
"                        ..............                          ",
"                        ..............                          ",
"                        ..............                          ",
"                        ..............                          ",
"                    ....++++++++++@@@@......                    ",
"                    ....++++++++++@@@@......                    ",
"                    ....++++++++++@@@@......                    ",
"                    ....++++++++++@@@@......                    ",
"                    ....++++++++++@@@@......                    ",
"                    ....++++++++++@@@@......                    ",
"                ....@@@@++++++++++++++@@@@@@....                ",
"                ....@@@@++++++++++++++@@@@@@....                ",
"                ....@@@@++++++++++++++@@@@@@....                ",
"                ....@@@@++++++++++++++@@@@@@....                ",
"      ......    ....++++++++++++++++++@@@@@@....    ....        ",
"      ......    ....++++++++++++++++++@@@@@@....    ....        ",
"      ......    ....++++++++++++++++++@@@@@@....    ....        ",
"      ......    ....++++++++++++++++++@@@@@@....    ....        ",
"  ....      ........++++++++++++++++++@@@@@@........    ......  ",
"  ....      ........++++++++++++++++++@@@@@@........    ......  ",
"  ....      ........++++++++++++++++++@@@@@@........    ......  ",
"  ....      ........++++++++++++++++++@@@@@@........    ......  ",
"  ....          ....@@@@..............@@@@@@....        ......  ",
"  ....          ....@@@@..............@@@@@@....        ......  ",
"  ....          ....@@@@..............@@@@@@....        ......  ",
"  ....          ....@@@@..............@@@@@@....        ......  ",
"  ....          ....@@@@..............@@@@@@....        ......  ",
"  ....          ....@@@@..............@@@@@@....        ......  ",
"  ....      ....    ....++++++++++++++......    ....    ......  ",
"  ....      ....    ....++++++++++++++......    ....    ......  ",
"  ....      ....    ....++++++++++++++......    ....    ......  ",
"  ....      ....    ....++++++++++++++......    ....    ......  ",
"            ....    ....++++++++++++++......    ....            ",
"            ....    ....++++++++++++++......    ....            ",
"            ....    ....++++++++++++++......    ....            ",
"            ....    ....++++++++++++++......    ....            ",
"            ....    ....######++++####......    ....            ",
"            ....    ....######++++####......    ....            ",
"            ....    ....######++++####......    ....            ",
"            ....    ....######++++####......    ....            ",
"            ....    ....######++++####......    ....            ",
"            ....    ....######++++####......    ....            ",
"                        ..............                          ",
"                        ..............                          ",
"                        ..............                          ",
"                        ..............                          ",
"                                                                ",
"                                                                ",
"                                                                ",
"                                                                ",
"                                                                ",
"                                                                ",
"                                                                ",
"                                                                ",
"                                                                "};
