/* XPM */
static char * torch_xpm[] = {
"64 64 13 1",
" 	c None",
".	c #FF8F00",
"+	c #FFD800",
"@	c #FFFF97",
"#	c #FFFFFF",
"$	c #6D5736",
"%	c #81663E",
"&	c #55452E",
"*	c #957546",
"=	c #423522",
"-	c #9F7F50",
";	c #372A17",
">	c #000000",
"                                                                ",
"                                                                ",
"                                                                ",
"                                                                ",
"                                                                ",
"                                                                ",
"                                                                ",
"                                                                ",
"                                                                ",
"                                                                ",
"                                                                ",
"                                                                ",
"                                                                ",
"                                                                ",
"                                                                ",
"                                                                ",
"                                                                ",
"                                                                ",
"                                                                ",
"                                                                ",
"                                                                ",
"                                                                ",
"                                                                ",
"                                                                ",
"                            ...++...                            ",
"                            .++@+++.                            ",
"                            .+@#+@++                            ",
"                            +@###@@+                            ",
"                            .@@#@#@+                            ",
"                            ++@@#@@+                            ",
"                            +@@@@+@.                            ",
"                            .+++++..                            ",
"                            $%$$$&&&                            ",
"                            %*%%%$&=                            ",
"                            **%*%$&=                            ",
"                            *%**%$&=                            ",
"                            *%**%&&=                            ",
"                            %%*%*&$=                            ",
"                            %*-%*$$&                            ",
"                            %*-**$&&                            ",
"                            **--*%&=                            ",
"                            ***-%%$=                            ",
"                            *%*-$%$=                            ",
"                            *%*-$%&=                            ",
"                            %***%%&&                            ",
"                            %*%*%%&&                            ",
"                            $*%-%$&&                            ",
"                            $**-%$&&                            ",
"                            $%**%&&=                            ",
"                            $%**$&$=                            ",
"                            %%%*%$$&                            ",
"                            %%*%%$&&                            ",
"                            %%%*$%&=                            ",
"                            %*%*$%&=                            ",
"                            $*-*%$&=                            ",
"                            $*-*%$&=                            ",
"                            %%--%&&;                            ",
"                            %%*-$&&;                            ",
"                            $%**$$&;                            ",
"                            $%*%&$&;                            ",
"                            &%%$&&=;                            ",
"                            &$%$&&=;                            ",
"                            &$$&&&=;                            ",
"                            $&&&&=;;                            "};
