/* XPM */
static char * torch_off_xpm[] = {
"64 64 11 1",
" 	c None",
".	c #290000",
"+	c #480000",
"@	c #560000",
"#	c #6D5736",
"$	c #81663E",
"%	c #55452E",
"&	c #957546",
"*	c #423522",
"=	c #9F7F50",
"-	c #372A17",
"                                                                ",
"                                                                ",
"                                                                ",
"                                                                ",
"                                                                ",
"                                                                ",
"                                                                ",
"                                                                ",
"                                                                ",
"                                                                ",
"                                                                ",
"                                                                ",
"                                                                ",
"                                                                ",
"                                                                ",
"                                                                ",
"                                                                ",
"                                                                ",
"                                                                ",
"                                                                ",
"                                                                ",
"                                                                ",
"                                                                ",
"                                                                ",
"                            .+@@++..                            ",
"                            +@@++@+.                            ",
"                            @+@@@++.                            ",
"                            @@@+@@++                            ",
"                            ++@@+@@+                            ",
"                            +@++@@+.                            ",
"                            .++@@++.                            ",
"                            ..++....                            ",
"                            #$###%%%                            ",
"                            $&$$$#%*                            ",
"                            &&$&$#%*                            ",
"                            &$&&$#%*                            ",
"                            &$&&$%%*                            ",
"                            $$&$&%#*                            ",
"                            $&=$&##%                            ",
"                            $&=&&#%%                            ",
"                            &&==&$%*                            ",
"                            &&&=$$#*                            ",
"                            &$&=#$#*                            ",
"                            &$&=#$%*                            ",
"                            $&&&$$%%                            ",
"                            $&$&$$%%                            ",
"                            #&$=$#%%                            ",
"                            #&&=$#%%                            ",
"                            #$&&$%%*                            ",
"                            #$&&#%#*                            ",
"                            $$$&$##%                            ",
"                            $$&$$#%%                            ",
"                            $$$&#$%*                            ",
"                            $&$&#$%*                            ",
"                            #&=&$#%*                            ",
"                            #&=&$#%*                            ",
"                            $$==$%%-                            ",
"                            $$&=#%%-                            ",
"                            #$&&##%-                            ",
"                            #$&$%#%-                            ",
"                            %$$#%%*-                            ",
"                            %#$#%%*-                            ",
"                            %##%%%*-                            ",
"                            #%%%%*--                            "};
