/* XPM */
static char * deepslate_top_xpm[] = {
"64 64 5 1",
" 	c #646464",
".	c #5A5A5A",
"+	c #4B4B50",
"@	c #3D3D43",
"#	c #747474",
" .....+.++.+++++@@++++.+++.  .++..  .   .. # ++@++@@+++@++.+++  ",
" ......+...+@+@++...+...       .+ .    .   #..++@++@@+@+++..+  .",
" ..........++@@@...+ .  ..  #   ..        # .+@@@++++@@++.+.... ",
"  .. .+...+@@@@++....  ..    #           ## .++@++++++@@+.... ..",
"    ...++.++@+@@+.++.++. .   ##    ##  ### ..+@+++.. .+@@+.  ...",
". ......++@@++++@+.+++..++.   #     ##  ##  +@@.+.   #.@++++   .",
".....+++@@@++++++++++++++....  #  .   ###  .+@+.   ## .+@+@..   ",
"..++++@@@+++++.. ++@@+++..+. .     ...    .@@@.   ##   +@@++... ",
"++++.++++..+..  # .+@@++++@+...  ...+@+++@@+@.   #  #  .+@@@@@++",
"+++++.++.......  ## .+@+@++@@+....++++@@@@++...     ##  ++@@@+++",
"++......++...     ##.+@@++@@@@@@@+++@@++.    ....    #  .+@+++@+",
"+++..++.....  ..   # ++@@+++@+++++@@@+....     .      # .+@@+@++",
"+@@@++..... .++..  # ++@+@@@++..  ...     .   .       ##.++@@@@@",
"@@+++@++..+.++ .  # .+@@@@+++..    ...               ##..+@@@@++",
"++@@@@@+++@+... ## ..@@@@++..  .. ..   ..           ## .+@@++. .",
".++++@@@@@+++.   ..+++@++++++.++.. .. ..   ..      # .++@@++. . ",
"  ..++@@@++.+@@+@@+++@++++@@+++++++..++.... ...   ..++@@+..     ",
"#   ..+@+....++@@@@@@++++++@@@+++@@+++.+..+.   .   ..++...      ",
" ## . +@@+.  .+++@@+..++.+...+@@@@+++@@+++....    ..+. .  .     ",
"  ## .+@+.  ....@++..++. .+...++@@@@@++++..+...+ .++...    ##   ",
"   #  +@   .    ....+.  .........++@@@+....++...+++..   #    ## ",
"   # .@+. ....   ..   ..........++++@+@+....+++++..      ## ##  ",
"  #  @@+..  . ..     ..........+..+@+++.+++..+@+..+.  ..  ##  . ",
"##  .@+++..  ..   .................++@@@++..+.+@++...  ...#  . .",
"   .+++@+++...  ..+...+..++.......+.++@@@@++@@@@@@+++..+.++.++..",
"..++++@+@@+@+...++.....+++..+...++....++@++.++++@@@@+++++.++@@++",
"+++@@@+++@@+@@++......++.++++.+++++++++.  .+   # .++@@++.++++@@@",
"@+@++@@@+++++@@++...++..++++++.+@++....+.   ###### .+@+.. .+.++.",
"..+. ..  ## ..+@@++..++@@+@++@+@+..   ..   #  ##  #.@+@+.. ....+",
"...   ########  @@++++@@@@++++@@..             ## # @++.+.  ....",
" .   #      ### .+@@@@+.+@@+@+@+. ...         #  #  @@++... ....",
"  .       ###### ++@++. ..+@@+@.....   .         ##.+@@+...  .  ",
"..           ### +@+.  .. .+@@@+....... .        # .+@+..     ..",
".      .   #  #  ++ ..   ...@@++..... ..        ##..+@+...   ...",
" ..     .   ###  +      ....+@+++.....       ### ..+@+..  ..   .",
"  ..    ..   ## ++.       ..++@+++.......   ##  .+++@+.  .....  ",
"         . ###  +@+ ...  ..+@+++..+.........+@++++@@+++..  .....",
"      #   ###   +@+. ...  .++@++.+....+...++@@@+@@@++@++........",
".. ##  #####   .@@....  ..++@@@++....++.+++@@+..  . ++@@@@++... ",
". ##  ########.+@+...  ..+@+++@+++..+.++++@+...    . ...+@@++. .",
"    ##  ###  ...++.....+@@..+++@@++@+@+.+.. .   .       ## ###  ",
" .       #  ....+++...++.    ..+@@@+++@+... .. . .     ## ##### ",
"....      ##  .++@+....   ##   .+@++.++. .   .....       #    # ",
"..           ..+@+.. ... ##   ##+@+....     .....  .##         #",
".+.  . .  ....+@@....        ###++@++. ...   ... ..  ###    # ##",
".++....    ..++@+.    #  # #  # ++@@++...+.   ......  #      ## ",
"++@+.  ....+++@++  .   #### ## .+@@@@@@++.+... ..        ##### .",
"@++@@+++++++@@@@+..  .  ## ##..++@@++@@@@+++@+....        ## ..+",
"+@@+@@++@@@@++@@@+  .....  ..+++@@++...   .++@@++++@@+..  ..++++",
"@@++++@@@@++++++@@++..+++.+++@+@+++.     ....+++..++@@+..++@+@@+",
"@@@@@@@@@+. ..+.++@+++++@@@@@@@+@++  .......+...  ..++@@++++@@@@",
"+@+@@@@+.    ..  .+++@@@@@+++@@@++ ..............    .++@+@@@+++",
".+@+@@+....      # ... ## ..++@@@+.+.. ..   ..  ##  . +@@@++++..",
"..+++@+... .     ## ...  ###..+@@++....   #  ..  ### .+@++......",
".+.++@.......     ## .     ##.+@++.. .   # ..      ##..++.+.... ",
".+++@@.....  .    #       # ##.@++..    ##        ### .+++.. .  ",
"..+@@+ .....     #           #.@++...   #          #  .@+.. .. .",
".+@@+..  ....           ##   #.@@++.. . #   # ##  #   +@+.   . .",
"+@@@....     ..       ###    #.+@@+...       ## ###   +@..    ..",
".+@+......    ....     #    # ++@+....       #   #   .+@.   ....",
"+@+... ..+++.. +++..+.  #### .+@++........           .@+. ......",
"++..  ....++++++...+++++. # ++@@+.+..  .++.       ...@@+ .+..+++",
"+.   ...++..@@+@+++++@@@@@++++@+++   .....++...  ..+@@+@@+@+++..",
".+. ...++..+.+@@@+@@@@@@++@@+@+++...  .....+++....++++++@@+++..+"};
