/* XPM */
static char * door_xpm[] = {
"64 64 58 1",
" 	c #67502C",
".	c #594526",
"+	c #755B32",
"@	c #8A6B3D",
"#	c #967441",
"$	c #705730",
"%	c #8C6C3E",
"&	c #8F6E3F",
"*	c #91703F",
"=	c #937240",
"-	c #957341",
";	c #927140",
">	c #8D6D3E",
",	c #8B6C3E",
"'	c #A58149",
")	c #947240",
"!	c #906F3F",
"~	c #8D6E3E",
"{	c #8F6F3F",
"]	c #8E6E3E",
"^	c #8C6D3E",
"/	c #90703F",
"(	c #735931",
"_	c #715831",
":	c #B58D50",
"<	c #7C8183",
"[	c #6F6F6F",
"}	c #A68149",
"|	c #947341",
"1	c #917140",
"2	c #8B6C3D",
"3	c #957441",
"4	c #A07C47",
"5	c #8E6D3E",
"6	c #808B95",
"7	c #797A76",
"8	c #614A2B",
"9	c #60492B",
"0	c #5A4528",
"a	c #5D4729",
"b	c #787878",
"c	c #8F6E3E",
"d	c #806339",
"e	c #795E34",
"f	c #685233",
"g	c #83653A",
"h	c #7E6238",
"i	c #A27D48",
"j	c #8B6B3D",
"k	c #725931",
"l	c #937140",
"m	c #A47F48",
"n	c #A37F48",
"o	c #947441",
"p	c #9E7B47",
"q	c #755B33",
"r	c #A58049",
"s	c #A17C47",
"        ..                                            ++        ",
"  @@##@@$$%%&&**==--############--;;>>@@@@@@@@,,@@@@@@''>>####  ",
"  @@##@@$$####));;!!~~%%@@@@@@@@@@@@{{--##==!!&&]]&&&&''@@####  ",
"  @@##@@$$&&>>%%@@@@^^]]&&{{//!!]]%%@@@@]]==##########''@@####  ",
"  @@##@@$$((((((((((((((__$$$$$$$$((((((((((((((((((((''@@####  ",
"  @@##@@$$                  ::##((                  ::''@@####  ",
"  @@##@@$$               :::::##((               :::::''@@####  ",
"<<@@##@@$$               :::::##((               :::::''@@####  ",
"[[@@##@@$$               :::::##((               :::::''%%--##  ",
"[[@@##@@$$       :::::::::::::##((     :::::::::::::::''%%==--  ",
"[[@@--@@$$       :::::::::::::##((     :::::::::::::::''>>====  ",
"[[@@--@@$$       :::::::::::::##((     :::::::::::::::''>>;;==  ",
"  @@--@@$$::::::::::::::::::::}}||::::::::::::::::::::''&&;;;;  ",
"  @@||@@$$############################################''&&;;;;  ",
"  @@==@@$$((((((((((((((((((((((((((((((((((((((((((((''>>==;;  ",
"  @@==@@$$                  ::##((                  ::''>>====  ",
"  >>==@@$$               :::::##((               :::::''@@--==  ",
"  11;;@@$$               :::::##((               :::::''@@##--  ",
"  --;;@@$$               :::::##((               :::::''@@####  ",
"  ##;;@@$$        ::::::::::::##((        ::::::::::::''@@####  ",
"  --;;@@$$        ::::::::::::##((        ::::::::::::''@@####  ",
"  ;;;;%%$$        ::::::::::::##((        ::::::::::::''@@####  ",
"  &&||%%$$::::::::::::::::::::}}||::::::::::::::::::::''@@####  ",
"  %%##%%$$################))%%@@^^!!@@@@@@@@@@@@@@@@@@''@@####  ",
"  @@##%%$$////&&&&>>>>>>>>&&**##!!@@--##//////;;;;====''%%####  ",
"  @@##%%$$>>%%%%%%22@@@@@@@@^^**--33**,,@@@@@@@@@@@@@@4455####  ",
"  @@##%%$$$$$$$$$$$$$$$$$$$$$$$$$$$$$$$$$$$$$$$$$$$$$$''//####  ",
"  @@##%%$$                  ::##((                  ::'';;--##  ",
"  @@##>>$$  ################::##((  ########666666666666==;;--  ",
"77@@##>>$$  ############!!##::##((  ########6666666666666655;;  ",
"[[@@##>>$$  ############,,##::##((  ########889900aabbbbbb,,55  ",
"[[@@##%%$$  ##########||@@!!::##((  ######ccdd9900aaeeeeff@@,,  ",
"[[@@--%%$$  ##==##>>>>{{@@@@::##((  ##==##>>>>gghhhh::''##@@@@  ",
"[[@@--%%$$  ##@@%%@@@@@@@@@@::##((  ##@@%%@@@@@@@@@@::''##@@@@  ",
"  @@--%%$$::::::::::::::::::::}}||::::::::::::::::::::''##@@@@  ",
"  @@##%%$$@@@@@@@@@@@@@@@@@@@@@@@@@@%%%%%%%%>>>>>>>>ii''##@@@@  ",
"  @@##@@$$############||;;//{{&&>>>>>>>>]]&&{{**;;))}}''##@@@@  ",
"  @@##@@$$>>@@@@@@@@@@jj{{==############==!!^^@@@@@@44''--%%@@  ",
"  @@##@@$$$$$$$$$$__(((((((((((((((((((((((((((((($$==''--{{%%  ",
"  @@##@@$$                  ::##((                  ::''==;;{{  ",
"  jj##@@$$  ################::##((  ################::'';;##;;  ",
"  &&##@@$$  ############!!##::##((  ############!!##::''//####  ",
"  ))##@@$$  ############,,##::##((  ############,,##::''&&####  ",
"  ####@@$$  ##########||@@!!::##((  ##########||@@!!::''>>####  ",
"  ####@@kk  ##==##>>>>{{@@@@::##((  ##==##>>>>{{@@@@::'',,####  ",
"  ##||@@((  ##@@%%@@@@@@@@@@::##((  ##@@%%@@@@@@@@@@::''@@####  ",
"  ##;;@@((::::::::::::::::::::}}||::::::::::::::::::::''@@####  ",
"  ##//@@((########ll//]]%%%%@@@@@@@@@@@@@@@@@@@@@@@@44''@@####  ",
"  ##55,,((>>%%@@@@@@@@>>&&//;;;;;;============ll;;;;mm''@@####  ",
"  ##%%&&((############;;//&&&&&&&&&&&&&&&&&&////////nn''@@####  ",
"  ##@@;;((((((((((((((((((((((((((((((((((((((((((((oo''@@####  ",
"77##@@--((                  ::##((                  ::''@@####  ",
"[[##@@##((  ################::##((  ################::''@@####  ",
"[[##@@##((  ############!!##::##((  ############!!##::''@@--##  ",
"[[##@@##((  ############,,##::##((  ############,,##::''@@----  ",
"[[##@@##((  ##########||@@!!::##((  ##########||@@!!::''@@----  ",
"  ##@@##((  ##==##>>>>{{@@@@::##((  ##==##>>>>{{@@@@::''@@##--  ",
"  ##@@--((  ##@@%%@@@@@@@@@@::##((  ##@@%%@@@@@@@@@@::''@@####  ",
"  ##@@//((::::::::::::::::::::ppqq::::::::::::::::::::''@@####  ",
"  ##jjjj((@@@@@@@@@@@@@@@@@@@@@@%%>>&&{{////&&>>,,@@44''@@####  ",
"  ##>>@@((################--==**&&>>22@@@@%%jj%%]]**rr''@@####  ",
"  ##//@@$$>>>>&&&&////{{&&]]>>>>%%%%@@@@@@%%22@@@@@@ss''@@####  ",
"  ##))@@$$##########################################}}''@@####  ",
"        ..                                          ++          "};
