/* XPM */
static char * deepslate_xpm[] = {
"64 64 5 1",
" 	c #646464",
".	c #797979",
"+	c #515151",
"@	c #3D3D43",
"#	c #2F2F37",
"  ...   ++    +++++@@@@##@##@@@@+          ++   ++ ++@@@++++ +  ",
" ..     +   ++++++++@@@@@##@@@@+            ++ +  ++++@@@++++   ",
".  . +++  +++@++++@@+@++@@@@@@++         +++ ++  ++@+@@@+++     ",
"..    ++++++++@@@++@@++@@@@#@+@++ ++  ..  ++++++++++@##@@@ ++++ ",
". +++++++++++@@#@@@@@@##@##@@@@@++  ... +++ +++++++@@@##@+++++  ",
" +++++@@++@####@@@@@#@@###@@@@@++  ... ++  +++++@@++@@@#++@@@@++",
"@@@+@##@@##@#@###@@@@##@@@@#@@@+@++   .  ++++@@@++@@###@@++@+@@+",
"@@+@#@@+++++++@###@@@@@@@@@@##@@+@@+    ++@@++#@+@######@@@+@@@@",
"@+++    ....  ++ +++++@@+@@####@@@++++++@##@@#####@@@#@@##@@@@++",
"++        ...     +  +++@@@@@@####@@+++@@@#####@@@@@#@@@@@@@++@+",
"    +++  ...        + +++++@@@@#@@@#@@####@@++@@@@#######@@@@@@@",
"++ ++  ++ ..  +    ++++++@@++@@@##@@####@++++@++@@@@@#######@@@@",
"@+++++++   .   +++@@++++++@@@@###@@++++ +  ....  ++ ++@#@@@+++@@",
"@@++@++    .    +++@@@++@@@@@@@@++++   + .......     +++#@+ + +@",
"@@@@+++++  . +++++++++@@@@@##@+@@+   ..     ...         +    +++",
"@@@#@+++   .+++++++++@@@@@##@+@++    .      .. .       +++  ++++",
"@#####@  +  ++++++@@@@@###@@@@++ +  .        .        ++@@++@@+@",
"###@@@##@@+ @+++@@@@@##@###@@@++  + .        .          ++@@@#@+",
"@+@@+@@@+@@@++@@@++@@@@#@@@@#@@++  .     +   .     ++  ++++@@@##",
"@@++++@+++++++++++++##@@@@@@##+++        ++  .      ++  +++++++@",
"....    +++ ++++++@@@##@#@@@@#@+++     + ++   +   ++  ++++ +++++",
"  ....     +++++@@+@@@@#####@@#+++      ++++   +   ++++++   +++ ",
"+  ..... ++++  @@+++++@@##@@@@@@+ +   +++++++ +++ +++@@+@@ + +  ",
" + ..   +++   +++++++@+@#@@@++@@++++   ++@+++ ++++++++@@+++++  +",
"+  .       +++++++ +@@@#@@@@@@++@+  ++++++@@+++@+@@@@@##@+++++++",
"   .        +++++ +++@@#@@@@@+++++++@@@+@##@@@++@#@@###@@@@@++++",
"+  .     +++  +++@@+@@###@@+@@@@+@@@@++@@@@###@@@@###@@@@@++@+++",
"+  . +    @+++++++@@@##@@@++++@@@@++++++++@@####@@@###@@@@@+++++",
"++ .  +++++@@@+@@@@@#@@@@+ +      + ++++++++@@#@####@@#@@+  + ++",
"+++. +++++++##@+@@####@@  .   ..    +  +++++++@#@@###@@#@    +++",
"+++ ++@@@####@@@@##@@@@@+  .......    ++ ++++@@@@@@@##@@++  + ++",
"++@@++++@@@#@@@@@@@@@@@@+@  ...       +   +++++@@@@#@@@@+@+  +++",
"++++@@+++@@+@#@@@@@@###@@++ ..     +++ +    ++@+@@@@@@@@@+++++++",
"+++@@+@+@++@@@##@@@###@#@++ ..    +  ++++  ++++@@@@@@@@##@+@@+++",
"+@@@@@@@++@@##@@@##@@@+@+++ .       ++++  +++@@@@#@#@@##@@@@++++",
"++@@@@@@@@#####@@@@+++++++++.    +++++  ++++@@##@@####@@@#@@@@++",
"@@++@@@@#####@@@@++++   ++++.  +++++++++++++++@###@##@@##@@@@@@#",
"#@@@@@@##@@###@@+@++  ++++++.   ++@@++++++@@+++@#@@@####@#@@###@",
"@#@@@@#@@@@@@##@@++ ++++++++ . ++@@++++@@@+++@@+@@###########@@@",
"@@@@@@@@@@@@@@@#++@++++@++@++ ++@+++++@+@@@+@@+@@#########@@@@++",
"+++@@+@@@@++@@@@@@+++@@+@@+++++@@@@+@@@@#@@@@@@@##@##@#@+++    +",
"    +@@@++@++@#@@++++++@@++@@@++@@@@@@@@@###@@@#@@#@++@+ ...  . ",
"  ++ .. +   ++@##@@@++++++@@@+@@@#@##@@###@@#@@@@@@@@@+++ ....  ",
"      ..   ++++@###@@@++ +++@@@@###@###@@@@@@@#@@@@+@+     ..   ",
"    ..    + ++@@@++ ..  +   .++++@@+@@##@@@@##@#++@@+++    .    ",
"       + +++++@@++    ..  ....   ++++@@@#+@@@##@@+++++ ++  .    ",
"     +++++@@++@+     . ...    .   +++++@@@+@@@#@@@+@++++   .    ",
" ++   ++@@@+++@+      ...         + ++@##@++@#@@#@@++++++  .    ",
"  ++++ ++@+@+@@+      ..           + @+@##@+@@####@@@++++++     ",
"  ++ +++@#@+@@@++ +    .            ++++@#+@@@@#####@@++++   +  ",
" +  +++@#@@@@@@@++     .           ++++@@#@#@@#@#@@@+++++  ++   ",
"+++  +++@@@@@@#@@@++   .         +  ++@@#@@#@@@@@@@+@++@ +++    ",
"@@+@+@@@@@#@@###@+@++++     ++    ++++++@@#@@@@@##@@@@@+@+++@+@@",
"#@@+@##@@@@####@@@++++     ++ ++   ++@@@@##@@@@@@###@@#@@@+++@@#",
"@##@@@##@#@@@@###@@@+ ++     +++@+++@+@@####@@@@@@@########@@@##",
"+++++@@@#@@@##@#####@+++++  ++@@++@@#@#@@@#@##@@@@#@@@###@@@##@@",
"       ++ ++@++  +@##@@##@###@@@@#####@+  .. +++@@@@@###@#@@++  ",
".  ...   ++ ++  + ++@#@@@######@@@@#@+  ...   ++++@@@@@##@+ + ..",
"... .            +@@+@@++@@@##@#@@+@. ..   +++  ++++@@@+ + +   .",
" ...    +     +   +++++@++@#@#@@@+++ ..   +  ++++++@@@@@+     . ",
"  .      ++  ++++   +++++@@##@#@+@+   .       ++++@+@#++        ",
"   .      ++  ++++ ++++++++@#@#@@+ +   .     ++  ++ +#@++    +  ",
"  ..        +++++ ++++@+@+@@@##@@++    .        ++ + @#@+  +  ++",
"   ..      ++++++++++@#@@@+@@#@@++     .       ++   @@@++ +  ++ "};
