/* XPM */
static char * coal_ore_xpm[] = {
"50 50 208 2",
"  	c #7F7F7F",
". 	c #818181",
"+ 	c #828282",
"@ 	c #868686",
"# 	c #8F8F8F",
"$ 	c #8E8E8E",
"% 	c #8C8C8C",
"& 	c #7C7C7C",
"* 	c #767676",
"= 	c #757575",
"- 	c #7E7E7E",
"; 	c #7B7B7B",
"> 	c #747474",
", 	c #7D7D7D",
"' 	c #787878",
") 	c #777777",
"! 	c #727272",
"~ 	c #737373",
"{ 	c #797979",
"] 	c #878787",
"^ 	c #808080",
"/ 	c #8D8D8D",
"( 	c #909090",
"_ 	c #8B8B8B",
": 	c #888888",
"< 	c #8A8A8A",
"[ 	c #898989",
"} 	c #848484",
"| 	c #7A7A7A",
"1 	c #6E6E6E",
"2 	c #6D6D6D",
"3 	c #6B6B6B",
"4 	c #6F6F6F",
"5 	c #858585",
"6 	c #707070",
"7 	c #6A6A6A",
"8 	c #696969",
"9 	c #717171",
"0 	c #838383",
"a 	c #636363",
"b 	c #646464",
"c 	c #6C6C6C",
"d 	c #686868",
"e 	c #666666",
"f 	c #5E5E5E",
"g 	c #434343",
"h 	c #3B3B3B",
"i 	c #414141",
"j 	c #444444",
"k 	c #404040",
"l 	c #4D4D4D",
"m 	c #606060",
"n 	c #656565",
"o 	c #545454",
"p 	c #393939",
"q 	c #5D5D5D",
"r 	c #676767",
"s 	c #515151",
"t 	c #282828",
"u 	c #2E2E2E",
"v 	c #343434",
"w 	c #373836",
"x 	c #373936",
"y 	c #363636",
"z 	c #303030",
"A 	c #585858",
"B 	c #575757",
"C 	c #2D2D2D",
"D 	c #2C2C2C",
"E 	c #333333",
"F 	c #262626",
"G 	c #2B2B2B",
"H 	c #333432",
"I 	c #383A36",
"J 	c #353535",
"K 	c #4C4C4C",
"L 	c #555555",
"M 	c #292929",
"N 	c #505050",
"O 	c #4F4F4F",
"P 	c #323331",
"Q 	c #373A35",
"R 	c #3D4038",
"S 	c #3E4139",
"T 	c #393C36",
"U 	c #41433B",
"V 	c #3D3E39",
"W 	c #44453C",
"X 	c #343433",
"Y 	c #626262",
"Z 	c #454545",
"` 	c #595959",
" .	c #2F2F2F",
"..	c #3A3C37",
"+.	c #43463C",
"@.	c #3A3C36",
"#.	c #3A3D36",
"$.	c #484A3E",
"%.	c #40423A",
"&.	c #393B36",
"*.	c #323232",
"=.	c #3E3E3E",
"-.	c #5A5A5A",
";.	c #3F3F3F",
">.	c #525252",
",.	c #3C3C3C",
"'.	c #2A2A2A",
").	c #373835",
"!.	c #333332",
"~.	c #343534",
"{.	c #43453C",
"].	c #44463C",
"^.	c #383936",
"/.	c #313131",
"(.	c #363635",
"_.	c #383B36",
":.	c #343633",
"<.	c #272727",
"[.	c #2C2C2D",
"}.	c #313230",
"|.	c #353734",
"1.	c #373737",
"2.	c #474747",
"3.	c #2A2B2A",
"4.	c #252525",
"5.	c #424242",
"6.	c #5B5B5B",
"7.	c #484848",
"8.	c #272728",
"9.	c #4B4B4C",
"0.	c #5C5C5C",
"a.	c #3A3A3A",
"b.	c #363834",
"c.	c #373934",
"d.	c #363734",
"e.	c #323330",
"f.	c #3B3E37",
"g.	c #47493E",
"h.	c #42443B",
"i.	c #393A37",
"j.	c #484947",
"k.	c #464646",
"l.	c #43453B",
"m.	c #3C3F38",
"n.	c #474A3E",
"o.	c #373935",
"p.	c #363735",
"q.	c #424341",
"r.	c #393A36",
"s.	c #2F2F2E",
"t.	c #353534",
"u.	c #383A35",
"v.	c #434541",
"w.	c #363736",
"x.	c #3E4039",
"y.	c #2C2C2B",
"z.	c #363934",
"A.	c #3F4239",
"B.	c #3A3D37",
"C.	c #45483D",
"D.	c #41443B",
"E.	c #303130",
"F.	c #3D3F38",
"G.	c #44473C",
"H.	c #46483D",
"I.	c #494B3F",
"J.	c #535353",
"K.	c #333532",
"L.	c #3C3E38",
"M.	c #383937",
"N.	c #525352",
"O.	c #353634",
"P.	c #4B4C49",
"Q.	c #565656",
"R.	c #616161",
"S.	c #4A4A4A",
"T.	c #232323",
"U.	c #313330",
"V.	c #393C37",
"W.	c #4E4E4E",
"X.	c #5F5F5F",
"Y.	c #32342F",
"Z.	c #45473C",
"`.	c #46483C",
" +	c #454643",
".+	c #383838",
"++	c #3A3B38",
"@+	c #5D5E5C",
"#+	c #373736",
"$+	c #474847",
"%+	c #494A49",
"&+	c #494949",
"*+	c #4B4C4A",
"=+	c #3C3E37",
"-+	c #393B35",
";+	c #3B3C39",
">+	c #2E2E2D",
",+	c #3F423A",
"'+	c #343532",
")+	c #3D3D3D",
"!+	c #3F403A",
"~+	c #3C3F37",
"{+	c #3E3F3D",
"]+	c #363835",
"^+	c #242424",
"/+	c #353635",
"(+	c #454644",
"_+	c #4A4A49",
"    . + @ # # # $ % $ + .   & * = & - ; > = , - ' ) , & ; ! ~ ; , ' ~ * = {   + ] $ . ; > = )       ",
"^ @ / ( # _ : < % . ] [ }   | - * > = |   ^ ^ } ^ { 1 2 2 3 3 4 1 2 ! | - { - } 5 .   ' > { ; | ,   ",
"^ } } 5 # / . ^ } .           - & = > , $ # % } ^ ; = ~ > ~ 6 7 6 > > > ) ) , ; ~ * -   & & > > * - ",
"^ ^ ^ - ' ) * - -     - | & ^ % / . -   ^   * = * % :   - + / .   - - , | ~ = > 6 8 > = |   , ; > * ",
"% # % | - ' > > = ,   ) * > > ) } <   & * 9 9 ~ ; - [ < - & 0 _ [ - ) ~ 3 1 9 8 3 9 ) ' & * ) { & - ",
"[ ( < : - | = > * |   - | | > > > ' ! 1 7 a b c 1 > 9 9 > > ~ ' { | | | > 9 8 8 c d '   ) > | + / < ",
"0 + + + * * > ~ 7 7 2 2 6 * > 9 7 7 e f g h i j k l m n 7 2 > > > = * ) , { b f o p q 2 9 > > * , 0 ",
"  + & * = > c 7 8 d 9 9 8 8 ! ! c r s t u v w x y z j A e 9 ~ > > > > = * r B C D E y n ~ > > * * - ",
"] / ] & { > > > 9 c 2 > 9 2 c d e B F G v H w I x J z E K L 3 6 > * { - & a E M E v E N c ~ = &     ",
"5 + & = > > | ; ; & = > > 1 c e O M D P Q x R S T U V W X J g Y 1 * ' - ' ) m J z Z ` 6 6 ~ ; | ' - ",
"- ; * = 6 d 8 *   | * > 4 8 d o u F  .y I ..+.@.#.S $.%.&.X u *.=.3 {   & > > Y j b 8 7 7 ! * = | - ",
"* ' , ' -.;.G m ; _ $ ; { ) * c >.,.'.).!.~.Q x {.].T T w ^.J  .G E 2 0 % 0 0   - & = 4 c | ,   | ) ",
"{ > > r i './.y Y 5 : : } ; | * 4 b K C *.G  .(.&._.I I :.*.z M  .8 $ : ] ] ] : @ , { ~ 1 ! > | | - ",
"& , ) j M E v J s -   ) ! c 3 1 4 8 r -.h D <.[.}.w |.z u D F l n _ # % : 5 _ } ] / . * ' , = > {   ",
"  ; = ; 1 1.1.2.'     , ' ! 7 ~ = , & 6 r -./.F F C 3.4. .;.a c   ] # # / @   - ; * = , - { ' . ^   ",
"        0   e ' - ; ; > * ! 6 9 & -   ^ = 6 q 2.k =.=.5.f b ) : < @ [ [ ; & * 6 9 > 6 9 ' & @ % [ 5 ",
"  } < < # # ( : , * | { * { { ; ;   - ' ' ' = ' 1 c c 4 6 9 ) ' - ; { ! 2 2 2 8 9 > 6 8 c ! & _ ( ] ",
"  ^ + 0 # # 5 +   -     | = = { | * ) , , = > ; , - | > & ; ~ > = ! 7 d d d d ! > > > ! ! > * ' -   ",
"  , - _ % $ # % ]   ^ % # # / + ^ ' * ; { * = = ) + + + ; * 7 8 d e 6.o L ` b r > ) > > > > * * * - ",
"{ ~ ' | ; } } ;   5 ] [ # # : : 0 ^ - | - ^ @ 5 ] # ( _ : 5 ) 3 m 7.J 8.C i 9.0.c ; { { { { | & ^   ",
"& { > > ,   & ; ) | 0 } 0 % _ ] = 4 * > * ' } _ # 0 & - - = 2 d a.F /.b.c.w d.5.f ~   _ _ + & = ) - ",
"- - , = = = = = > ~ > > ^ % [ n -.-.d 2 ~ > = ) ) * - ) * = 4 g <.e._.f.g.h.i.&.j., % $ : { * = | - ",
") > > > > > 9 6 9 3 d 7 2 n ` k.D H >.L Y 6 ) & - ) > > ; - ' r ,.'.:.l.m.n.].o.N 6 | &         ; ) ",
"- ; * > > > 6 1 r 2 8 r B j '. .p.T d./.i O 7 2 ) { ; ; ; - | = 7 -.q._.&.r.s.l d ! { ;             ",
"- * ; , ; > > > ! 2 q 1.C G t.u.T T w ^.J z p A 8 > ; | ) { ^ - & > 4 v.w.k.d { & ,   , * * )       ",
"  - , = = * &   ) q z 4. .w.T m.l.x.f.T w o.*.u a.= # # % % % + , | * > m 7 > > = & , , { > > = ;   ",
"  & = > = | { - ) 5.4.y.z.A.B.C.].$.D.T I u F h = : : [ ^   & | > * ; | { { { { ;   | ' > > { ;     ",
"  } [ - : ] < < [ 3  .E.w F.G.H.I.%._.I _.u J.2 0 < 5 -   , = > | > > ; , ) ' ' |     - & * '       ",
"  ^ .   . + % % ^ - f C K.w.L.].B.w M.i.N.n 6     } # / ^ - - ) * , ] / < | = - 0 / / : , - -       ",
",     0 ] / _ } . { > q J G v b.O.i P.b 2   } } } _ _ 0 & = ;   ' { & ] _ 5   } + + + >.Q.~ | & & & ",
"= { { @ ] 0   ] 5 & > ~ R.S.'.p K m b d 6 | + + @       | & ^ | { ) ~ {     ; + 5 ; K t T.k.>.1 ! > ",
"! 1 |   & ;   ) = > & , & ! B 0.e d d 2 ! > > > * * * &   , * > = , , - ) * = & ) S.<.u U.O.J ;.6.| ",
"* 9 7 > ) , - , , , -   ; * > , { 3 7 7 8 8 ~ 1 3 = - { -   | * * | { ) . , ' * N 4.s.S l.{.V.W.8 ~ ",
"; ' > ' > > > > > > > ; ,   { ;   { ) > 1 c 1 * { ' ;       , -     } @ # # # ] X./.Y.Z.`. +W.! = ' ",
"; ; ;   & & & > > > > * ,           [ ] ] @ &       } < [ , = ) ' ' . 5 5 < # [ & 6 .+++@+3 ' 0 < < ",
", {   * = = 2 c ) , Y a > *   5 / / # [ . + / 5   % $ $ +   { = , ! f 9 - ^ . . -   { 6 ~ ; ^ / ] . ",
"& { * * 2 8 d 9 e L h #+$+2 { 5 @ $ # % 0 , | { ' ' 5 - ) , &   > %+3.'.-.) , - ) = > ; > > > * {   ",
"{ > ' | ' 9 n X.;.H x f.R b.&+2.S.> | | { ~ 1 1 ' | ) > { ~ ) 9 *+=+-+'.z -.7 > ) ) > > > > = | | - ",
"* > > = , 4 0..+z o.G.].f.T Q *.D J p Y , & ) 9 ~ 3 8 1 > , | R.;+g.g.l.>+*.1.g 8 3 ~ ! 3 3 c = ) ) ",
"= {   , = 8 =.<.P B.F.$.$.m.#+^.y z D '.a.&   - * ~ ) , * { { &+&.,+g.R w '+t t l 7 3 > ~ ! 8 8 6 > ",
"^ 5 5   & 6 a )+M !+].~+A.x v E z  .v l 3 ; ; { ' ' * > ; , 1 {+~.x w.h.x v D S.4 ~ ) ' ' ! 6 =   { ",
"^ < # # 0 . 4 Y 2.[.]+T I '+D ^+k o 6.9 > > * -   { ) > >   5 -. ././+w /.t W.4 * |     & 5 < % ( _ ",
"% / $ $ % ] , ~ 2 2.E w d.[.L B Y 8 = & = 8 8 3 ~ > ' , - ^ . ; f '.M u <.L ! , | = * * = ) ^ + + + ",
"    - , , ,   - * > 8 (+>.Y n = +   ; 7 )+ ./._+B Y 6 ) & , ' > = 2 N a.O { -     . ; | | | ; 0 $ 5 ",
"    ; > * ) { | | | { > ' 5 ] < ( : | =.G *.I I ]+J e ^ | ' > > | & ' > { , 5 ] } } [ ( ( # # @ % < ",
"- ) ) > c 2 ! = & { ) { + } # # : } , 2.F z H E !.m > ) - - & & & ,   < _ / # $ @ _ . 0 [ # # % 0 ^ ",
"- | = 2 > > & -   , , , - -   5 / . * 1 f E z B 6 > { - ^ 5 ]   - * * -     ^ ^   ^ - . / } ' ) = , ",
") ;     - & & = | ) > > > ) = & - & & ) 7 R.Y > &   . } < < / @ } 5 . ' > = , & & ) ) ) ) | &   ; ) ",
"      { ) ~ { ; , ; > = ; - | * , ; { 9 4 4 7 ! > '   ]   . % ( $ @ +   ; ,   ; ' ~ {     & ;       ",
"      , , ,   - * ; , -       -       , , = ~ > > , -     ^ + + .               - , = '             "};
