/* XPM */
static char * deepslate_gold_ore_xpm[] = {
"64 64 9 1",
" 	c #797979",
".	c #646464",
"+	c #515151",
"@	c #3D3D43",
"#	c #2F2F37",
"$	c #9C6420",
"%	c #EB9D0E",
"&	c #FCEE4B",
"*	c #FFFFB5",
" ......+++++++++++++++++++@@@#@@+....+++....+++++++@@@+++++++++.",
" .......++++++++@@@+++++@@@@@#@@....+++......+++++++@#@@+++++...",
"......++@@++++@@@@+++@@####@@@@@++........++++++@@@##@@@@@++++..",
"...++++@@@@@+++@@@@@@@@@@######@+.......+++++++++@#####@@+++++++",
"+++++@@@@#######@$%&@@@@@@@###@@@+++..........++++@@@@++++++++++",
"+++@@@###@@####$$&&%@@@@@@##@@@@@++.........++++@@@@@+++++++++@@",
"#@@@###@++++++$%&&%%#@@@@@@@@@@@@@++.......+++@@@##@##@++++@@@@#",
"@@@@@++++++++++$%%$$ ##@@@@@@@@@@@@@+...+++++++@####@@@##+++@@##",
"@+...          .$$$  ++@@#@@@@@@@@########@###@@@@@@@##$$#####@@",
"@@++++.    ......$  .+++@@##$$$$#######@@@@@####@@@@##$$%$##@@@@",
"@@@+....  ....... .+@@@@@##$%$$$$###@@+++++++@@@@@##$$%%$$$@##@@",
"@++++...  ......++@@@##@@#$$$%%$$@@++++++++++++++#$$%%%$%%$##@@@",
"+++++++. ....++@@@@@@@@@#$$$%%$$$$..  ..        #$$%$%&&%%%$+++@",
"@@++++++ ..+++++@@@@@@@##$$%%%%%$$+++.....     .$$%%%&%&&%&%+@@@",
"@@@@++++ .+++@@+++@@@@@#$$%%%&&%%$$+++.....   ..$$%&&&&&&&&%++@@",
"@@#@@@++.++++++++@@##@##$%%&&%&&%%$$........  ..$%$%&&&&%&% @@@@",
"##@@@@@+++++@@@########$%$%%*&&%&%$%$....... ... $$%%%&&&% @@@@@",
"@###@++++++++@@@######$$%&&*&&&&*%%%$....... ... $%$%&&%$ ++++@@",
"######@@@@@@@@###@@#$$$%%%&&&&*&*&%$%$+..... .... $$$%$$ +++@@@#",
"########@@@@##@@@@$$%$%%&&**&***&&%$$$.+++.. ..... $$$  .+@#####",
"      .....++....$$$$%%&&******&&&%$$$..+++. ...++.   .++.....  ",
"    .....+++.....$$%%%&&*&*&*&***%$$$ ++++++ .+++.....++++++... ",
"  ....++++++++...$%%$%%&&*&&&***&$%$ .++++++.+++....++++++++++..",
" ......++++++++..$$$%%&%**&*&&*&%$$$.+@@@@++.+++++++++@@@@+++...",
" ..........+@@+++ $$$%%%&**&&&&&$$$ +@@@@@@@@@@@@@@@####@++++++.",
" .........+@@@@@++ $%$%%%&**&%&%$$$.+++@@@@###@@@@########@+++++",
"........++++++@@@@# $$%%&*&&&&%%%$ ++++++@@@#########@@@@@@@@@++",
".....+++@@++@@@@@@@# $$%&%&&%%%$$ .+++++@@@@@@########@@@@@@++++",
"..+++++++@@@@@@@@@@@@ $%%%&%%$   .......+++++@@@####@@@%%$++++++",
".++++++@@@@@@@###@@@##$$%%%%$  ....+++++++++++@###@@@+$&&%$+++++",
"+++++@@@@#@@######@@@@ $$$%$  ....++++++++@@@@@@@@@@@$%%&& @@@@+",
"++++@@@@@@#####@@@###@@$$%$$  ......+++++@++@@@@@@@@@.$&$$.+@@@@",
"++++++@@@+++$$@@@@@###@ $$$  .........+++......++@@###.$$ .@@@++",
"+++@@##+++$%%$$$##@@@@@+ $$  .....++++++........++@@###  @@##@@+",
"++@@##@++$$$%%%$$@@@@@+++$  ....++++++++.....+++++@@@@@@##@@++++",
"++++@@@@$$%&&%&%%$@++++++ .+...++...++++...++++@@+@@#@@@@@@@@+++",
"@@@@@##$%&&&&&&&&%++...+++++..++...++@@@+...+@@@@@####@@@####@@@",
"@@@###$%%%&%&&&&% ....++++++..++++++@@@@@@++++@@@###@@@@@@######",
"@@@@@@@$$%%$%&&% ....+++++++.+++++++++@#####@@@##@@@@+++++++++@@",
"++@@@@++$$$%%%  ++++++++++@@.++@@++++@@@#####@#@@+++++++....++++",
"...++...      ++@@@@++@@@@@##@###@@@@@@###$$$$$@+++......       ",
"..++++......++++@@@@@@++@@#@@@@####@@###$$$%%$$$$$+++...     ...",
"....++++...++++@@##@@@@+++@@@@@@@###@@@$$$$$%%$%%$$$....   .....",
"......+++++++++@##@@++++++++@@@@@@@@@@$$%$%%%%%&&&%$%$..  ......",
".++++++++++++++@@@+.      .   ....++@$$%$%%&&%&%&*&%$$$$$ ......",
"..++++++++++++@@+++     ...........++$$%%%&%&&&&*&&**&%$$$......",
".....++++++@@@@@@+.  ...............+$$%%%&&&*&*****&*&%%%$.....",
".......+@@########. ..............+++$%$%%%&*&&&**&&&&&%%$ .....",
"....++++++@####$$$#@..........$$+++++.$$%&%&&&***&*&&&%$  ...+++",
"..+++++++###$$$$$$$$@.......$$$%++++++ $%&&&&*&*&&%&%%  ...+++..",
"+++++++@##$$%%&&%$$%$+.....$%%%..+++++. $%&%&&*&&%&%  +++...++++",
"+++++@##$$%$$%%%&&%$$$@++...$%....+++@@.$$%&&&&%%%  @@+++++...++",
"##@@###$$%$%%%&*%&&&%$$@.......++++@@@@@ $$%%&%%   #@@@@@@@@@@##",
"@@@@@@$$%%%&%&**&*&&&%$@....+++++@@@@@## $%$%%%  @######@@@@####",
"++++@@.$$%&&&*&*****&&%$++++++++++++@#@@. $$%% ++++@@@####@@@@++",
"+++++++..$%%&&*&&**&&&%.+++@@@+++++@@@+++  $$ +++++++++@###@++++",
"        ..  %&&&*&&%&%.#@@####@@@++....      .++++++++++$$      ",
"     ....... %&&&%%&% .@@#######@@++..  .....+++++++++.$$%$$    ",
"   ........++ %%&&%% .++@@@@#####@+++.   .........++..$%%$%$..  ",
"  ..........++ %%%  .+++@@#####@@@+++. .........+++....$%%% ... ",
"    ......++++.   .+++@@@@@####@@++++. .....++++++++++..$% .....",
"      ...+++........+++@@@@@@###@++++. .......+++++++...  ......",
"  ..........+....++++@@@@@+@@##@@+++++...........+++++++....++..",
" ..........++++...++++@@+++@@#@@++++++..........+++++++++..++..."};
