/* XPM */
static char * deepslate_iron_ore_xpm[] = {
"50 50 10 1",
" 	c #646464",
".	c #797979",
"+	c #515151",
"@	c #3D3D43",
"#	c #2F2F37",
"$	c #77674F",
"%	c #887455",
"&	c #AF8E77",
"*	c #D8AF93",
"=	c #E2C0AA",
" ...  ++   ++++@@@#@##@@@+        +   + +@@@+++   ",
" ..      +++++++@@@@#@@@+          + +@@@@@@+++   ",
".    ++++++@@++@++@@@#@+++ +  .  ++++@#####@@++++ ",
". ++++++++@@@@@@@##@#@@@@+  .. +++@@@+$%$$$$@++++ ",
"++++@@++@###@@@@@@##@@@@++  .. +++@+$%%%%%$@++@@@+",
"@@+@#@+@@@@###@@@@@@@@@@@+@+    +$$%%&&&%$@@@++@@@",
"@++    +@@##+$$$+@@+@###@@@++++@@@$%&&&$+@@@#@@@++",
"+     @#@$%%%&&% ++@@@@@##@@++@@@#@@%%+@@@@@@@@+@+",
"   +@@++%&&&&&$++++++@@@@@@@@###@@++@+@######@@@@@",
"@++$$$&&&&&*& ++++++@@@@##@@@@++      ++++@#@@@+@@",
"@+++%&%%***. ++@@++@@@@@@@@+@@+ .....    +++@+ ++@",
"@@@+ %%&&*. +++++@@@@#@@@@@@@@@++ ...       +   ++",
"@@#@@ $%&. +++++@@@@@@@###@$$$%$$%..       +@+++++",
"##@@@@++ ++++@@@@#@####+$$%%%&&&*&*&&%      +@@@@+",
"@+@+@@+@@++@@++@@@#@$%%&%&&&&%&***&%%$  +  +++@@@#",
"+  ++++++++++++@@+$%%&&&&***&**==&%%     +  $$$+++",
" ...     ++++@$$$&&&&**======*=**&.     ++$%&%$++ ",
"+ .... +++  @$%%&***==*====*==*&&   ++ ++$&&&$+   ",
"  ..  +++  ++ .%&&&**=====*=*&.  ++ ++++++%$++++ +",
"  .      +++++ ...%&****==*&.  +@@@+++@@@@##@+++++",
"+ .    ++  ++++    ....&&&.++++@@@##@@@##@@@@+++++",
"+ . +   @+++++@@@@+++     +++++++@###@@@##@@@@++++",
"++.  ++++@@+@@@##@@+ +      +++++++@#@###@#@+  +++",
"++  +@@@@#@@@@#@@@@  .....    +@++++@@@@##@@+   ++",
"++@+++@@@@@@@@@@@@@+  ..     @#@@++++@@@#@@@++  ++",
"+++@@++@@@#@@@@@##@++ .    +$%$+@@#@@@@@@@@@@+++++",
"++@@@@++@@#++++##@@++ .      $$%%%$++++$$@@#@@@+++",
"+@@@@@@@#+$$%&&+#@+++ .   ++++$&*&%$%&&&+#@@@@@@++",
"@@+@+$$%&%%%&&&*%+++++. +++++++%%&*&&*&+#@@#@@@@@@",
"#@@@@+$%%&%&&**=*&&&&..  +@@+++++%&**&+@@####@@##@",
"@@@@@@++$%&**===****=*& +++++++@@+$&&+########@@@+",
"++@@+@@@++  %*=*==*..$++@@@+@@@@@@@  ##@#@#@++   +",
"   ++@++++@@+&***. ++@@++@@@@@@@##@@@@@#@+@+ .. . ",
"  + ..   ++@#@@++ +++@@@@@###@@#@@@@@@@@@@++  ..  ",
"   ..   +++@@@+        ++@@@@@#@@@@#@@@@+++   .   ",
"       ++++@++   .. ...   +++@@#@@@###@@++ +  .   ",
"    ++++@++@    . ..       +++@@@@@@$%%%@#++  .   ",
" ++  ++@+++@     ..          @##+$$%&&&&%$$$$     ",
"  + ++@@+@@@+ + %&&%        @@$$%&&*****&&%%$     ",
" + ++@#@@@@@@$%%&&%       $%%%%&&&&&***=**&$  ++  ",
"++  +++@@@@#@@$$% .        $$%&&****===**&+++++  +",
"@@$$%%%$####@@+++    ++ +  ++$%**===*=&%$@@@@+++@#",
"@#@%%&&&%+###@@@ ++    +++++@++&****..+@######@@@#",
"+++..&&&&%$@@@##+++++ +@@+@@#@@+&*&. +@#@@##@@@@@+",
"   ....%&&%   +@#@#####@@@###@+ ..  +++@@@@##@++ .",
".. .   ...   +@+@@+@@@###@@@  .   ++ ++++@@++ +  .",
" ..   +    +  ++++@+@#@@@@++ ..  + +++++@@@@    . ",
"       ++ +++  +++++@###@++   .     +++++@++      ",
"  .       +++++++++++@@#@@+   .       +  +@++    +",
"  ..     ++++++++#@@+@@@@++   .      +  +@@+ +  + "};
