/* XPM */
static char * deepslate_coal_ore_xpm[] = {
"64 64 10 1",
" 	c #797979",
".	c #646464",
"+	c #515151",
"@	c #3D3D43",
"#	c #2F2F37",
"$	c #0A0A0A",
"%	c #1F1F1F",
"&	c #2A2A2A",
"*	c #393C36",
"=	c #494B3F",
" ......+++++++++++++++++++@@@#@@+....+++....+++++++@@@+++++++++.",
" .......++++++++@@@+++++@@@@@#@@....+++......+++++++@#@@+++++...",
"......++@@++++@@@@+++@@####@@@@@++........++++++@@@##@@@@@++++..",
"...++++@@@@@+++@@@@@@@@@@######@+.......+++++++++@#####@@+++++++",
"+++++@@@@#######@@##@@@@@@@###@@@+++..........++++@@@@++++++++++",
"+++@@@###@@########@@@@@@@###@@@@++.........++++@@@@@+++++++++@@",
"#@@@###@++++++@@@####@@@@@@####@@@++.......+++@@@##@##@++++@@@@#",
"@@@@@+++++++++++++@@@##@@@########@@+...+++++++@####@@@@@+++@@##",
"@+...          .....+++@@#$%&&&%&#########@###@@@@@@%%@@######@@",
"@@++++.    ....+++++++++$$%&&*&&%%#####@@@@@####@@$$%&%#####@@@@",
"@@@+....  .......+++@@@$$%&%&&*&&%%&@@+++++++@@@%$$%&&&%##@@##@@",
"@++++...  ......++@@@#$$%%&*****&&&&%&+++++++++++%%&&%%#@@@##@@@",
"+++++++. ....++@@@@+@%$%%**&*=**=*==&%%$        ..&%%......++++@",
"@@++++++ ..+++++@@@@%$$%&&**=****==**&%%$$     ....%........+@@@",
"@@@@+++$$.+++@@+++@@@%%$&*%&**&==***&*&&%%$$  ........+...++++@@",
"@@#@@@$$&$+++++++@@##@@%%&&%%&*******&&%%$$   .....++++++..+@@@@",
"##@@@$&%%&&&@@@#######@@%%%$%%&**&*&%%%%$%   ....++++++++++@@@@@",
"@###$$%&&&%.+@@@####@@@@#@%%$$%%&*%%%%$$   . ...++++++..++++++@@",
"####..$%&%..@@###@@@@@##@@@@%$$$%%$$$$   ... .....++++++++++@@@#",
"#####...%..@##@@@@@@@@@###@@+%%$$$$$   .++.. ..........+++@#####",
"      .....++......+.+++@##@@.      .....++. ...++...++++.....  ",
"    .....+++........++++@###@+++++....++++++ .+++.....++++++... ",
"  ....++++++++...++++++@###@@@@+++++++++++++.+++....++++++++++..",
" ......++++++++...+++@@@###@@@++++++++@@@@@@#####@++++@@@@+++...",
" ..........+@@+++++@++@###@@@@@@+++++@@@@@##$$%%##@@####@++++++.",
" .........+@@@@@++++@#####@@@@@@@@+++++@@#$$%%%&&%########@+++++",
"........++++++@@@@#####@@@###@@++@@+++++@$$%&***&*%##@@@@@@@@@++",
".....+++@@++@@@@@@@######@@#####@+++++++$$%***==*&**##@@@@@@++++",
"..+++++++@@@@@@@@###$%%#+.      .........$%%*=*===*%.@@@@@++++++",
".++++++@@@@@@@####$%%&*&%%..   ....+++++..$%&***=%%..+++++++++++",
"+++++@@@@#@@####$$%%&***&&%%  ....+++++++...***&%% .+@+++++@@@@+",
"++++@@@@@@####$$$%&****&*&&%%%......+++++++. *&%  .+@@@@++++@@@@",
"++++++@@@++++$$$&&***=****&*&%%$......+++....   .++###@@@@@@@@++",
"+++@@##+++++$$$%***==*==***%%$$ ..++++++........++@@####@@@##@@+",
"++@@##@+++++$$%**=**===***&%$$ .++++++++.....+++++@@@@@@##@@++++",
"++++@@@@++@#+$%&&*====**&**$  .++...++++...++++@@+@@#@@@@@@@@+++",
"@@@@@#######@.$%*&*=**&&*%  ..++...++@@@+...+@@@@@####@@@####@@@",
"@@@######@@@@+.$%%&**&&*  ++..++++++@@@@@@++++@@@###@@@#########",
"@@@@@@@@@@##@@+.$$%%%&   +++.+++++++++@#####@@@##@@@@##$$%++++@@",
"++@@@@+++@@##@@@. $%   +++@@.++@@++++@@@#####@#@@@@@##$%$$%%++++",
"...++...++++++++@@    @@@@@##@###@@@@@@####@@@@@@@@##$$%%*&&%%  ",
"..++++......++++@@@@@@++@@#@@@@####@@#########@@@@@@$$%*=*=*&  .",
"....++++...++++@@##@@@@+++@@@@@@@###@@@@########@@++%$*===&% ...",
"......+++++++++@##@@++++++++@@@@@@@@@@@########@+++++%$*=*  ....",
".++++++++++++++@@@+.      .   ....++@@##########@+++++%%   .....",
"..++++++++++@@##@++     ...........+++@@########@++++++.  ......",
".....+++++@@@&&&##@@ ...............+@@@@@#%$$###@++++++ .......",
".......+@@#%&&***&###@@...........+++++@@#**%$$@@@@@++++ .......",
"....+++++@%%***=**&%%$##@.......++++++++#**=*%%$@+++++++.....+++",
"..++++++@$%&*==****&%%$$$@.....+++++++@@#&====%%$$$+++++...+++..",
"++++++++$$%***===*&*&&%%$$$......++++++@&**==*&*%$$$+++++...++++",
"++++++@@@$$&==*=*&&&&&&%%$........+++@@@*&*&&=*&&%$@@@+++++...++",
"##@@#####.$%&*****%%$$$$ ......++++@@@@@%%&&**&%%$##@@@@@@@@@@##",
"@@@@@@####.$%&**&%%$$   ....+++++@@@@@## %%%&&%%$ ######@@@@####",
"++++@@@@@@@.%%&*%$   .++++++++++++++@#@@  $$$%$$ .+@@@####@@@@++",
"++++++++++@@. *&   .@+++++$%%%+++++@@@++.   $$$  ++++++@###@++++",
"        ......   .@@@@##@$%%&**&&%+....         .+++++++..      ",
"     ...........+++++++@$$%&**&*%@++..  .....+++++++++......    ",
"   ........++++++...++++@$$%%&%%#@+++.   .........++..........  ",
"  ..........++++++++++++@@#$$%#@@@+++. .........+++............ ",
"    ......++++....++++@@@@@####@@++++. .....++++++++++...+++....",
"      ...+++........+++@@@@@@###@++++. .......+++++++...........",
"  ..........+....++++@@@@@+@@##@@+++++...........+++++++....++..",
" ..........++++...++++@@+++@@#@@++++++..........+++++++++..++..."};
