/* XPM */
static char * grass_block_side_xpm[] = {
"50 50 11 1",
" 	c #538631",
".	c #588E34",
"+	c #64A039",
"@	c #4A782B",
"#	c #3E6723",
"$	c #593D29",
"%	c #79553A",
"&	c #966C4A",
"*	c #878787",
"=	c #6C6C6C",
"-	c #B9855C",
" ..   ++......+...++. . ...@  ...  .. +. .+....+. ",
".+ @  .. .+ ...+. .+.    +.@@.....@  ......+  +.+.",
"...@ .+   .++  . @.+ @   + @@..  .@ ...+. .+  ... ",
".+   ++ @..+.. .@  ..#  @... +  @  @.. +. .+@..   ",
"..@  +. @..+    $@@. #..@.... @ @   +. ..# .#.. @@",
"  @ .+  #  ..@ @$#@.@$ .@.+++ #@    + @  $@ #..@@#",
" @@@..@ #@@+.@@@$$# #$ .@..+.@#@ @@.. @@ $@@#@+##%",
"@#$#@@# $@@+ @$#%$$ $$@@@@.+.@$@ #@.@@@@ $$@$@ $#%",
"@%$##$#@$##+ #$$%%%@$$$@#$..@$$#@#@ @@$#@%$$%#@$%&",
"$%$%%==#$$$.@#%$%%$#$%$##%@.@$$##$@ ##$##%%$%$$%%%",
"%&%=**%#%$%@@$%%$%%%%%%#$%%@#$$$#$@@$#$$@%%%&$%%&%",
"&&&*==%%&&%@#%%$&&&%%&&$$%%#$%%%$$$@$$$%%%&%&%&%%%",
"%&-&=%%&&--&@%%&&&&%%&%%%%&$%%%%$$%$$$%%%%%&&&%%%&",
"%%&%%%%&&--&%%%%&-&%%$%%&%&&&%%$$%==$%%%$%%&&%$$%&",
"%&%&%&&%&&&&&%&--&&&%%%%%&&%%%$%%%*=*%$$%%&&%$$$%%",
"%%&%%&%%&&&%%%%&&&&%%$$%%%%%%$%$%&===%%%%&%%%$%%%%",
"&%%$$%%&&%$%$%%&&&&%&%%%$$%%%%%%%%%$$%&%%&%&%%%%&&",
"-&%$$%%%%&%$%%&&%&%&%%&%&%%%&&&%%%%%%$%$%&&&%%%&-&",
"-&&%%%&%%%&%%&&%%%%%&&%&-%&&&%%&&&&%$$$$%%&-&%&&--",
"-&&%&&&%&&%%%**=%&&%%&&&--&&%%&&--&&%%$%%&-&&&%-&&",
"&&%%%%%%%%%%&=**&%&%$%&-&&&&$$%&&--&-&%%%&&-&%%-&&",
"%&&%$%%%&&%&&=*=&&%$%%&--&&-%$%%&-&&&-&%&-&&%%&&&%",
"&%%$%%&%&&&--&=&--&%$%%&&&-&%%$%%&-&&&%%&&-&%&%&&%",
"&-%%%$%&------&&&-&%%$%&&&&&&%%%&&%%&&&%%&%%%&&&%%",
"&--%$%-&--&--&%%%&&%%%%%%&&%&%&&-&%&%%&&%%$%&&&$%%",
"&-&-&%&&--&&%%&&&%%&%$$%%%&&%&--&&&%%%%%$$%%%$$%%&",
"&-&&%%&%&&&&%&&%&%&&%$%$%%&&&----&&&%$%%%%%%$%%%%&",
"%&&&%%%%%&%%&%$%&%$%%$$%%&&%&&--&%%$$%%$&%%$$%%&%%",
"&&&%%&%$%%&%&$$&%%%$$%&%&&%&%%&&%$%%%%&&&&%%%&&-&&",
"%&%%&-&$$%%%%%$$%$%%%%&%%%%%&%&%%%%&%&&---&&%&--&&",
"%%%%--&%$$%$%%%$$%%%%&%%$%%%$%%%%&&%&--&&&-&%%%&--",
"$$%&-&-%$%$$&%&-&&%%&&-&%$%$%%%&&%%%&-&&-&&%=&&&&%",
"%$&&&&&&%%%%&&--&%&&---&%%$%&%&&&&%$%&-&&-%&**=%%%",
"%%%%&&%%&%%&-----&&--&--&$$%%&&---&$%&&&&&%&==*=%&",
"-&%%%&%%%&--&&&&-&&&&&&&%&=&&---&&%%$%%%&%%&%==&%&",
"-&&%$%$%%&&&&&&&--&&&&%&&***&&&--&%%%$%&&%%%%%%%&%",
"-&%$%%%$%%%%&&&-&--%%%&&***&&&&&&%&&%%$$%&%%%$$%%&",
"&&%%%%%%%%&&&&&&&&-&&%%&===%&&&&&&%%%%%%%%&%%%%%%%",
"%%%%$%%%%&%%&%%&&&&&%%%%&&=%%%&&%&%%%%&%%&%%&&&%$%",
"%&%%%--&%$&%&&%%&&&&&&%&&%%%&&&%%%&&%&%%%&&&&-&-&%",
"%%%&&---%%$%&%%&&&&&-&&&%$%%&%&&&%&&%%%%%%&--&&&-&",
"%&%&&--&&%$$$%&%%&&%&&-&&&$$%%&&-&&%%$%&%&&-&&&&%%",
"&%%%%&&%%$&%%$%&%$%&%%&&%&%%$$%%&&&$$%%%&&&&&%&&%&",
"&&%%&%%%$%%&%%&%&%$%%&&%$%&&%$$&&&%$%%%%%%&&%&&&&%",
"&&%%%%$$%%&%%%$%%%%%%%$%%&--&$$%%$$%%&&&%%&%&&%%&&",
"%%&&$$%$%&%%&%%%$$$%%%%&--&&&&&%%$%&&%&&%%%&&&%&%%",
"%%&%%%%%&&-&&%%%$$%=*%%%&--&-&%%$$%&&%%%%%$%%%%%%$",
"%%%%%%&&----&&&%%%=***=%%&&-&%%$%%%$$%%&&%%%%&%$%%",
"&&%%&&-&--&&-&&&&%=**=%%&&%&&&&%%$%%%&&%%%&&&%%$%&",
"&-&%%&&&-&%%&&%%&&%=&%%&&%%&&%%&%%$%%&&%%%%&&&&%%&"};
